Papirus-GTK/24x24/apps/money-manager-ex.svg

<svg height="24" viewBox="0 0 24 24" width="24" xmlns="http://www.w3.org/2000/svg"><g transform="translate(1 1)"><circle cx="11" cy="11" fill="#329c32" r="10"/><path d="m16.016755 8.3274807l-3.115579.4941406c-.156337-.3964273-.298716-.6700188-.427136-.8207743-.122836-.1563359-.329425-.3126732-.619766-.4690121v2.4204361c1.697377.452264 2.830823.929652 3.400338 1.432165.753769.6756 1.130654 1.532663 1.130654 2.571188 0 .608611-.136795 1.166959-.410385 1.675043-.268007.508084-.614183.932435-1.038528 1.273054-.41876.34059-.865438.589043-1.340034.745359-.474595.15077-1.055277.240106-1.742045.268007v1.582913h-1.222781v-1.582913c-.820771-.072583-1.487996-.203785-2.0016758-.393606-.5080962-.195423-.9491908-.46343-1.3232839-.80402-.368509-.340591-.6532661-.706309-.8542712-1.097156-.2010052-.396421-.3517592-.563944-.4522621-1.122305l3.383587-.5c.100502.552777.234505.748489.40201.99414.173087.24568.455053.463444.845896.653293v-2.956467c-1.127862-.312675-1.9290904-.583473-2.403686-.812395-.4690119-.228922-.8766057-.594639-1.2227814-1.097151-.3461754-.508098-.5192631-1.125073-.5192631-1.8509238 0-.9938578.3461756-1.8230037 1.0385267-2.4874378.6979344-.6700171 1.7336688-1.0413188 3.1072038-1.1139051v-.8291445h1.222781v.8291445c1.250699.078169 2.205473.3740945 2.864324.8877758.664434.5136785 1.097153 1.2171957 1.298157 2.1105516zm-5.385262-.8375192c-.357342.1172512-.605807.2624209-.745394.4355091-.139587.1730882-.20938.3768849-.20938.61139 0 .2456744.06979.4606387.20938.6448929.145171.1786715.393635.3294255.745394.4522625zm1.222781 8.2412185c.474595-.106087.820771-.279184 1.038527-.51929.223339-.245651.335009-.519235.335009-.820752 0-.262424-.09492-.502514-.284758-.72027-.184255-.223339-.547181-.429928-1.088778-.619765z" fill="#fff" opacity=".2"/><path d="m16.016755 7.8274807l-3.115579.4941406c-.156337-.3964273-.298716-.6700188-.427136-.8207743-.122836-.1563359-.329425-.3126732-.619766-.4690121v2.4204361c1.697377.452264 2.830823.929652 3.400338 1.432165.753769.6756 1.130654 1.532663 1.130654 2.571188 0 .608611-.136795 1.166959-.410385 1.675043-.268007.508084-.614183.932435-1.038528 1.273054-.41876.34059-.865438.589043-1.340034.745359-.474595.15077-1.055277.240106-1.742045.268007v1.582913h-1.222781v-1.582913c-.820771-.072583-1.487996-.203785-2.0016758-.393606-.5080962-.195423-.9491908-.46343-1.3232839-.80402-.368509-.340591-.6532661-.706309-.8542712-1.097156-.2010052-.396421-.3517592-.563944-.4522621-1.122305l3.383587-.5c.100502.552777.234505.748489.40201.99414.173087.24568.455053.463444.845896.653293v-2.956467c-1.127862-.312675-1.9290904-.583473-2.403686-.812395-.4690119-.228922-.8766057-.594639-1.2227814-1.097151-.3461754-.508098-.5192631-1.125073-.5192631-1.8509238 0-.9938578.3461756-1.8230037 1.0385267-2.4874378.6979344-.6700171 1.7336688-1.0413188 3.1072038-1.1139051v-.8291445h1.222781v.8291445c1.250699.078169 2.205473.3740945 2.864324.8877758.664434.5136785 1.097153 1.2171957 1.298157 2.1105516zm-5.385262-.8375192c-.357342.1172512-.605807.2624209-.745394.4355091-.139587.1730882-.20938.3768849-.20938.61139 0 .2456744.06979.4606387.20938.6448929.145171.1786715.393635.3294255.745394.4522625zm1.222781 8.2412185c.474595-.106087.820771-.279184 1.038527-.51929.223339-.245651.335009-.519235.335009-.820752 0-.262424-.09492-.502514-.284758-.72027-.184255-.223339-.547181-.429928-1.088778-.619765z" fill="#262626"/><path d="m11 1.0000172a9.9999999 9.9999999 0 0 0 -9.929679 8.9257738 9.9999999 9.4999833 0 0 1  9.929679-8.4257742 9.9999999 9.4999833 0 0 1  9.960929 8.7236252 9.9999999 9.9999999 0 0 0 -9.960929-9.2236248zm9.960929 9.2236248a9.9999999 9.9999999 0 0 1  .03906.776367 9.9999999 9.4999833 0 0 0 -.03906-.776367zm-19.890608-.297851a9.9999999 9.4999833 0 0 0 -.024414.196289 9.9999999 9.9999999 0 0 1  .024414-.196289zm-.024414.196289a9.9999999 9.9999999 0 0 0 -.045898.877929 9.9999999 9.4999833 0 0 1  .045898-.877929z" fill="#fff" opacity=".2"/><path d="m11 21a9.9999999 9.9999999 0 0 1 -9.929679-8.925792 9.9999999 9.4999833 0 0 0  9.929679 8.425792 9.9999999 9.4999833 0 0 0  9.960929-8.723642 9.9999999 9.9999999 0 0 1 -9.960929 9.223642zm9.960929-9.223642a9.9999999 9.9999999 0 0 0  .03906-.776349 9.9999999 9.4999833 0 0 1 -.03907.776349zm-19.890608.29785a9.9999999 9.4999833 0 0 1 -.024414-.19625 9.9999999 9.9999999 0 0 0  .024414.19625zm-.024414-.19625a9.9999999 9.9999999 0 0 1 -.045898-.877949 9.9999999 9.4999833 0 0 0  .045898.877949z" opacity=".3"/></g></svg>

<?xml version="1.0" encoding="UTF-8" standalone="no"?>
<svg
   xmlns:dc="http://purl.org/dc/elements/1.1/"
   xmlns:cc="http://creativecommons.org/ns#"
   xmlns:rdf="http://www.w3.org/1999/02/22-rdf-syntax-ns#"
   xmlns:svg="http://www.w3.org/2000/svg"
   xmlns="http://www.w3.org/2000/svg"
   xmlns:sodipodi="http://sodipodi.sourceforge.net/DTD/sodipodi-0.dtd"
   xmlns:inkscape="http://www.inkscape.org/namespaces/inkscape"
   version="1.1"
   id="svg4261"
   viewBox="0 0 24 24"
   height="24"
   width="24"
   inkscape:version="0.91 r13725"
   sodipodi:docname="money-manager-ex.svg">
  <sodipodi:namedview
     pagecolor="#ffffff"
     bordercolor="#666666"
     borderopacity="1"
     objecttolerance="10"
     gridtolerance="10"
     guidetolerance="10"
     inkscape:pageopacity="0"
     inkscape:pageshadow="2"
     inkscape:window-width="1600"
     inkscape:window-height="849"
     id="namedview13"
     showgrid="false"
     inkscape:zoom="13.12"
     inkscape:cx="8.2486677"
     inkscape:cy="12.445985"
     inkscape:window-x="0"
     inkscape:window-y="0"
     inkscape:window-maximized="1"
     inkscape:current-layer="svg4261" />
  <defs
     id="defs4263" />
  <metadata
     id="metadata4266">
    <rdf:RDF>
      <cc:Work
         rdf:about="">
        <dc:format>image/svg+xml</dc:format>
        <dc:type
           rdf:resource="http://purl.org/dc/dcmitype/StillImage" />
        <dc:title></dc:title>
      </cc:Work>
    </rdf:RDF>
  </metadata>
  <g
     id="g4233"
     transform="translate(1,1)">
    <circle
       r="10"
       cy="11"
       cx="11"
       id="path4136"
       style="opacity:1;fill:#329c32;fill-opacity:1;stroke:none;stroke-width:0.2;stroke-miterlimit:4;stroke-dasharray:none;stroke-opacity:1" />
    <path
       style="font-style:normal;font-variant:normal;font-weight:normal;font-stretch:normal;font-size:medium;line-height:125%;font-family:'Arial Black';-inkscape-font-specification:'Arial Black, Normal';text-align:start;letter-spacing:0px;word-spacing:0px;writing-mode:lr-tb;text-anchor:start;opacity:0.2;fill:#ffffff;fill-opacity:1;stroke:none;stroke-width:1px;stroke-linecap:butt;stroke-linejoin:miter;stroke-opacity:1"
       id="path4231"
       d="M 16.016755,8.3274807 12.901176,8.8216213 C 12.744839,8.425194 12.60246,8.1516025 12.47404,8.000847 12.351204,7.8445111 12.144615,7.6881738 11.854274,7.5318349 l 0,2.4204361 c 1.697377,0.452264 2.830823,0.929652 3.400338,1.432165 0.753769,0.6756 1.130654,1.532663 1.130654,2.571188 0,0.608611 -0.136795,1.166959 -0.410385,1.675043 -0.268007,0.508084 -0.614183,0.932435 -1.038528,1.273054 -0.41876,0.34059 -0.865438,0.589043 -1.340034,0.745359 -0.474595,0.15077 -1.055277,0.240106 -1.742045,0.268007 l 0,1.582913 -1.222781,0 0,-1.582913 C 9.810722,17.844504 9.143497,17.713302 8.6298172,17.523481 8.121721,17.328058 7.6806264,17.060051 7.3065333,16.719461 6.9380243,16.37887 6.6532672,16.013152 6.4522621,15.622305 6.2512569,15.225884 6.1005029,15.058361 6,14.5 L 9.383587,14 c 0.100502,0.552777 0.234505,0.748489 0.40201,0.99414 0.173087,0.24568 0.455053,0.463444 0.845896,0.653293 l 0,-2.956467 C 9.503631,12.378291 8.7024026,12.107493 8.227807,11.878571 7.7587951,11.649649 7.3512013,11.283932 7.0050256,10.78142 6.6588502,10.273322 6.4857625,9.656347 6.4857625,8.9304962 c 0,-0.9938578 0.3461756,-1.8230037 1.0385267,-2.4874378 C 8.2222236,5.7730413 9.257958,5.4017396 10.631493,5.3291533 l 0,-0.8291445 1.222781,0 0,0.8291445 c 1.250699,0.078169 2.205473,0.3740945 2.864324,0.8877758 0.664434,0.5136785 1.097153,1.2171957 1.298157,2.1105516 z M 10.631493,7.4899615 c -0.357342,0.1172512 -0.605807,0.2624209 -0.745394,0.4355091 -0.139587,0.1730882 -0.20938,0.3768849 -0.20938,0.61139 0,0.2456744 0.06979,0.4606387 0.20938,0.6448929 0.145171,0.1786715 0.393635,0.3294255 0.745394,0.4522625 z m 1.222781,8.2412185 c 0.474595,-0.106087 0.820771,-0.279184 1.038527,-0.51929 0.223339,-0.245651 0.335009,-0.519235 0.335009,-0.820752 0,-0.262424 -0.09492,-0.502514 -0.284758,-0.72027 -0.184255,-0.223339 -0.547181,-0.429928 -1.088778,-0.619765 z"
       inkscape:connector-curvature="0"
       sodipodi:nodetypes="ccccccscccccccccccccccccsccccccccsscccccsccc" />
    <path
       sodipodi:nodetypes="ccccccscccccccccccccccccsccccccccsscccccsccc"
       inkscape:connector-curvature="0"
       d="M 16.016755,7.8274807 12.901176,8.3216213 C 12.744839,7.925194 12.60246,7.6516025 12.47404,7.500847 12.351204,7.3445111 12.144615,7.1881738 11.854274,7.0318349 l 0,2.4204361 c 1.697377,0.452264 2.830823,0.929652 3.400338,1.432165 0.753769,0.6756 1.130654,1.532663 1.130654,2.571188 0,0.608611 -0.136795,1.166959 -0.410385,1.675043 -0.268007,0.508084 -0.614183,0.932435 -1.038528,1.273054 -0.41876,0.34059 -0.865438,0.589043 -1.340034,0.745359 -0.474595,0.15077 -1.055277,0.240106 -1.742045,0.268007 l 0,1.582913 -1.222781,0 0,-1.582913 C 9.810722,17.344504 9.143497,17.213302 8.6298172,17.023481 8.121721,16.828058 7.6806264,16.560051 7.3065333,16.219461 6.9380243,15.87887 6.6532672,15.513152 6.4522621,15.122305 6.2512569,14.725884 6.1005029,14.558361 6,14 l 3.383587,-0.5 c 0.100502,0.552777 0.234505,0.748489 0.40201,0.99414 0.173087,0.24568 0.455053,0.463444 0.845896,0.653293 l 0,-2.956467 C 9.503631,11.878291 8.7024026,11.607493 8.227807,11.378571 7.7587951,11.149649 7.3512013,10.783932 7.0050256,10.28142 6.6588502,9.773322 6.4857625,9.156347 6.4857625,8.4304962 c 0,-0.9938578 0.3461756,-1.8230037 1.0385267,-2.4874378 C 8.2222236,5.2730413 9.257958,4.9017396 10.631493,4.8291533 l 0,-0.8291445 1.222781,0 0,0.8291445 c 1.250699,0.078169 2.205473,0.3740945 2.864324,0.8877758 0.664434,0.5136785 1.097153,1.2171957 1.298157,2.1105516 z M 10.631493,6.9899615 c -0.357342,0.1172512 -0.605807,0.2624209 -0.745394,0.4355091 -0.139587,0.1730882 -0.20938,0.3768849 -0.20938,0.61139 0,0.2456744 0.06979,0.4606387 0.20938,0.6448929 0.145171,0.1786715 0.393635,0.3294255 0.745394,0.4522625 z m 1.222781,8.2412185 c 0.474595,-0.106087 0.820771,-0.279184 1.038527,-0.51929 0.223339,-0.245651 0.335009,-0.519235 0.335009,-0.820752 0,-0.262424 -0.09492,-0.502514 -0.284758,-0.72027 -0.184255,-0.223339 -0.547181,-0.429928 -1.088778,-0.619765 z"
       id="path4143"
       style="font-style:normal;font-variant:normal;font-weight:normal;font-stretch:normal;font-size:medium;line-height:125%;font-family:'Arial Black';-inkscape-font-specification:'Arial Black, Normal';text-align:start;letter-spacing:0px;word-spacing:0px;writing-mode:lr-tb;text-anchor:start;fill:#262626;fill-opacity:1;stroke:none;stroke-width:1px;stroke-linecap:butt;stroke-linejoin:miter;stroke-opacity:1" />
    <path
       id="circle4149"
       d="M 11,1.0000172 A 9.9999999,9.9999999 0 0 0 1.070321,9.925791 9.9999999,9.4999833 0 0 1 11,1.5000168 9.9999999,9.4999833 0 0 1 20.960929,10.223642 9.9999999,9.9999999 0 0 0 11,1.0000172 Z m 9.960929,9.2236248 a 9.9999999,9.9999999 0 0 1 0.03906,0.776367 9.9999999,9.4999833 0 0 0 -0.03906,-0.776367 z M 1.070321,9.925791 A 9.9999999,9.4999833 0 0 0 1.045907,10.12208 9.9999999,9.9999999 0 0 1 1.070321,9.925791 Z M 1.045907,10.12208 A 9.9999999,9.9999999 0 0 0 1.000009,11.000009 9.9999999,9.4999833 0 0 1 1.045907,10.12208 Z"
       style="opacity:0.2;fill:#ffffff;fill-opacity:1;stroke:none;stroke-width:0.2;stroke-miterlimit:4;stroke-dasharray:none;stroke-opacity:1"
       inkscape:connector-curvature="0" />
    <path
       style="opacity:0.3;fill:#000000;fill-opacity:1;stroke:none;stroke-width:0.2;stroke-miterlimit:4;stroke-dasharray:none;stroke-opacity:1"
       d="M 11,21 A 9.9999999,9.9999999 0 0 1 1.070321,12.074208 9.9999999,9.4999833 0 0 0 11,20.5 9.9999999,9.4999833 0 0 0 20.960929,11.776358 9.9999999,9.9999999 0 0 1 11,21 Z m 9.960929,-9.223642 a 9.9999999,9.9999999 0 0 0 0.03906,-0.776349 9.9999999,9.4999833 0 0 1 -0.03907,0.776349 z m -19.890608,0.29785 a 9.9999999,9.4999833 0 0 1 -0.024414,-0.19625 9.9999999,9.9999999 0 0 0 0.024414,0.19625 z m -0.024414,-0.19625 a 9.9999999,9.9999999 0 0 1 -0.045898,-0.877949 9.9999999,9.4999833 0 0 0 0.045898,0.877949 z"
       id="path4157"
       inkscape:connector-curvature="0" />
  </g>
</svg>
